icons/minimize-16.svg

<svg width="16" height="16" viewBox="0 0 16 16" fill="none" xmlns="http://www.w3.org/2000/svg">
<path d="M6.6682 8.58323C6.71251 8.58332 6.75589 8.58749 6.79808 8.59495C6.80361 8.59592 6.80917 8.59678 6.81468 8.59788C6.8254 8.60002 6.83538 8.60505 6.84593 8.60764C6.88245 8.6166 6.91924 8.62535 6.95433 8.63987C7.00473 8.6608 7.05179 8.68807 7.09593 8.71897C7.13139 8.74378 7.16583 8.77129 7.19749 8.80295C7.25018 8.85568 7.28976 8.91634 7.32347 8.97874C7.33552 9.00101 7.34884 9.02256 7.35863 9.04612C7.38026 9.0983 7.39518 9.15228 7.40452 9.20725C7.41149 9.24829 7.41721 9.29021 7.41722 9.33323L7.41624 13.3332C7.41624 13.7474 7.08046 14.0832 6.66624 14.0832C6.25222 14.083 5.91624 13.7473 5.91624 13.3332V11.1448L2.5305 14.5305C2.23767 14.8231 1.76281 14.8231 1.46995 14.5305C1.17712 14.2377 1.17722 13.7629 1.46995 13.4699L4.85667 10.0832H2.66624C2.25222 10.083 1.91624 9.7473 1.91624 9.33323C1.9163 8.9192 2.25226 8.58346 2.66624 8.58323H6.6682Z" fill="#010409"/>
<path d="M13.47 1.46995C13.7629 1.17722 14.2377 1.17711 14.5305 1.46995C14.8231 1.7628 14.8232 2.23766 14.5305 2.53049L11.1448 5.91624H13.3332C13.7473 5.91624 14.083 6.25222 14.0832 6.66624C14.0832 7.08045 13.7474 7.41624 13.3332 7.41624L9.33324 7.41721C9.25203 7.4172 9.17503 7.40008 9.10179 7.3762C9.08329 7.37018 9.0642 7.36611 9.04613 7.35862C9.02257 7.34883 9.00101 7.33551 8.97874 7.32346C8.91635 7.28975 8.85569 7.25017 8.80296 7.19749C8.77144 7.16596 8.74469 7.13121 8.71995 7.09592C8.68892 7.05165 8.66088 7.00489 8.63988 6.95432C8.61897 6.9038 8.60434 6.85124 8.59495 6.79807C8.58741 6.7554 8.58324 6.71107 8.58324 6.66624V2.66624C8.58347 2.25226 8.91922 1.9163 9.33324 1.91624C9.7473 1.91624 10.083 2.25222 10.0832 2.66624V4.85667L13.47 1.46995Z" fill="#010409"/>
</svg>

<svg xmlns="http://www.w3.org/2000/svg" width="16" height="16" viewBox="0 0 16 16"><path d="M6.668 8.583a.69.69 0 0 1 .13.012l.017.003c.01.002.02.007.031.01.036.009.073.017.108.032a.727.727 0 0 1 .243.163.711.711 0 0 1 .126.176.62.62 0 0 1 .036.067.822.822 0 0 1 .058.287l-.001 4a.75.75 0 0 1-1.5 0v-2.188L2.53 14.53a.749.749 0 1 1-1.06-1.06l3.387-3.387H2.666a.75.75 0 0 1 0-1.5h4.002ZM13.47 1.47a.749.749 0 1 1 1.06 1.06l-3.385 3.386h2.188a.75.75 0 0 1 0 1.5l-4 .001a.738.738 0 0 1-.231-.041c-.019-.006-.038-.01-.056-.017a.62.62 0 0 1-.067-.036.711.711 0 0 1-.384-.525.72.72 0 0 1-.012-.132v-4a.75.75 0 0 1 1.5 0v2.191L13.47 1.47Z"/></svg>
